assets/img/icon-video.svg

<svg width="16" height="16" viewBox="0 0 16 16" fill="none" xmlns="http://www.w3.org/2000/svg">
<path fill-rule="evenodd" clip-rule="evenodd" d="M2.47701 3.53032C2.2613 3.74603 2.08334 4.18099 2.08334 5.19332V10.8067C2.08334 11.3992 2.23225 11.9087 2.52277 12.2573C2.79322 12.5817 3.26627 12.8633 4.14001 12.8633H8.35334C9.36161 12.8633 9.79745 12.6857 10.0144 12.4692C10.2309 12.253 10.41 11.8175 10.41 10.8067V5.19332C10.41 4.18099 10.2321 3.74603 10.0163 3.53032C9.80064 3.31461 9.36567 3.13666 8.35334 3.13666H4.14001C3.12768 3.13666 2.69271 3.31461 2.47701 3.53032ZM1.41635 2.46966C2.07731 1.8087 3.04568 1.63666 4.14001 1.63666H8.35334C9.44768 1.63666 10.416 1.8087 11.077 2.46966C11.738 3.13062 11.91 4.09899 11.91 5.19332V10.8067C11.91 11.9024 11.7358 12.8703 11.074 13.5308C10.4126 14.191 9.44508 14.3633 8.35334 14.3633H4.14001C2.90708 14.3633 1.9768 13.9449 1.37059 13.2177C0.784438 12.5146 0.583344 11.6208 0.583344 10.8067V5.19332C0.583344 4.09899 0.755388 3.13062 1.41635 2.46966Z" fill="white"/>
<path fill-rule="evenodd" clip-rule="evenodd" d="M13.4428 5.20816C13.4426 5.20829 13.443 5.20804 13.4428 5.20816L11.91 6.28335V9.70995L13.444 10.786L13.4458 10.7873C13.6698 10.9453 13.7907 10.9591 13.8322 10.9577C13.8574 10.9245 13.9167 10.8169 13.9167 10.54V5.45998C13.9167 5.17975 13.8559 5.07251 13.8309 5.04033C13.7905 5.03828 13.6689 5.05034 13.4428 5.20816ZM13.821 10.9701C13.8206 10.9704 13.821 10.9701 13.821 10.9701V10.9701ZM14.5272 3.70684C15.1812 4.04837 15.4167 4.76885 15.4167 5.45998V10.54C15.4167 11.2304 15.1815 11.9524 14.5257 12.293C13.8699 12.6337 13.1449 12.4105 12.5819 12.0135C12.5815 12.0132 12.5812 12.013 12.5808 12.0127L10.7293 10.714C10.5292 10.5736 10.41 10.3445 10.41 10.1V5.89332C10.41 5.64884 10.5292 5.4197 10.7293 5.27931L12.5838 3.97847C13.148 3.58435 13.873 3.36523 14.5272 3.70684ZM6.42922 5.09588C6.75741 4.76769 7.20253 4.58332 7.66666 4.58332C8.13078 4.58332 8.5759 4.76769 8.90409 5.09588C9.23228 5.42407 9.41666 5.86919 9.41666 6.33332C9.41666 6.79744 9.23228 7.24256 8.90409 7.57075C8.5759 7.89894 8.13078 8.08332 7.66666 8.08332C7.20253 8.08332 6.75741 7.89894 6.42922 7.57075C6.10103 7.24256 5.91666 6.79744 5.91666 6.33332C5.91666 5.86919 6.10103 5.42407 6.42922 5.09588ZM7.66666 6.08332C7.60035 6.08332 7.53676 6.10966 7.48988 6.15654C7.443 6.20342 7.41666 6.26701 7.41666 6.33332C7.41666 6.39962 7.443 6.46321 7.48988 6.51009C7.53676 6.55698 7.60035 6.58332 7.66666 6.58332C7.73296 6.58332 7.79655 6.55698 7.84343 6.51009C7.89032 6.46321 7.91666 6.39962 7.91666 6.33332C7.91666 6.26701 7.89032 6.20342 7.84343 6.15654C7.79655 6.10966 7.73296 6.08332 7.66666 6.08332Z" fill="white"/>
</svg>

<svg width="16" height="16" fill="none" xmlns="http://www.w3.org/2000/svg"><path fill-rule="evenodd" clip-rule="evenodd" d="M2.477 3.53c-.216.216-.394.651-.394 1.663v5.614c0 .592.15 1.102.44 1.45.27.325.743.606 1.617.606h4.213c1.009 0 1.444-.177 1.661-.394.217-.216.396-.651.396-1.662V5.193c0-1.012-.178-1.447-.394-1.663-.215-.215-.65-.393-1.663-.393H4.14c-1.012 0-1.447.178-1.663.393zm-1.06-1.06c.66-.661 1.629-.833 2.723-.833h4.213c1.095 0 2.063.172 2.724.833.661.66.833 1.629.833 2.723v5.614c0 1.095-.174 2.063-.836 2.724-.661.66-1.629.832-2.72.832H4.14c-1.233 0-2.163-.418-2.77-1.145-.586-.703-.787-1.597-.787-2.411V5.193c0-1.094.172-2.062.833-2.723z" fill="#fff"/><path fill-rule="evenodd" clip-rule="evenodd" d="M13.443 5.208L11.91 6.283V9.71l1.534 1.076.002.001c.224.158.345.172.386.17.025-.033.085-.14.085-.417V5.46c0-.28-.061-.387-.086-.42-.04-.002-.162.01-.388.168zm.378 5.762zm.706-7.263c.654.341.89 1.062.89 1.753v5.08c0 .69-.236 1.412-.891 1.753-.656.34-1.381.118-1.944-.28h-.001l-1.852-1.299a.75.75 0 01-.319-.614V5.893a.75.75 0 01.32-.614l1.854-1.3c.564-.395 1.289-.614 1.943-.272zM6.43 5.096A1.75 1.75 0 118.904 7.57 1.75 1.75 0 016.43 5.096zm1.238.987a.25.25 0 100 .5.25.25 0 000-.5z" fill="#fff"/></svg>
